src/lib/packages/icons/src/assets/line/hashtag.svg

<svg width="24" height="24" viewBox="0 0 24 24" fill="none" xmlns="http://www.w3.org/2000/svg">
<path d="M21 7.75H17.336L18.228 4.18201C18.329 3.78001 18.084 3.37301 17.683 3.27301C17.278 3.17201 16.873 3.417 16.773 3.819L15.79 7.75101H10.336L11.228 4.18302C11.329 3.78102 11.084 3.37399 10.683 3.27399C10.276 3.17299 9.87299 3.41801 9.77299 3.82001L8.78999 7.75202H5C4.586 7.75202 4.25 8.08802 4.25 8.50202C4.25 8.91602 4.586 9.25202 5 9.25202H8.414L7.039 14.752H3C2.586 14.752 2.25 15.088 2.25 15.502C2.25 15.916 2.586 16.252 3 16.252H6.664L5.772 19.82C5.671 20.222 5.916 20.629 6.317 20.729C6.379 20.744 6.44 20.752 6.5 20.752C6.836 20.752 7.142 20.524 7.227 20.184L8.21001 16.252H13.664L12.772 19.82C12.671 20.222 12.916 20.629 13.317 20.729C13.379 20.744 13.44 20.752 13.5 20.752C13.836 20.752 14.142 20.524 14.227 20.184L15.21 16.252H19C19.414 16.252 19.75 15.916 19.75 15.502C19.75 15.088 19.414 14.752 19 14.752H15.586L16.961 9.25202H21C21.414 9.25202 21.75 8.91602 21.75 8.50202C21.75 8.08802 21.414 7.75 21 7.75ZM14.039 14.75H8.58501L9.96001 9.25H15.414L14.039 14.75Z" fill="currentColor"/>
</svg>

<svg xmlns="http://www.w3.org/2000/svg" width="24" height="24" fill="none"><path fill="currentColor" d="M21 7.75h-3.664l.892-3.568a.749.749 0 1 0-1.455-.363l-.983 3.932h-5.454l.892-3.568a.749.749 0 1 0-1.455-.363L8.79 7.752H5a.75.75 0 0 0 0 1.5h3.414l-1.375 5.5H3a.75.75 0 0 0 0 1.5h3.664l-.892 3.568a.749.749 0 1 0 1.455.364l.983-3.932h5.454l-.892 3.568a.749.749 0 1 0 1.455.364l.983-3.932H19a.75.75 0 0 0 0-1.5h-3.414l1.375-5.5H21a.75.75 0 0 0 0-1.502Zm-6.961 7H8.585l1.375-5.5h5.454l-1.375 5.5Z"/></svg>
